lib/brands/icons/google-keep.svg

<svg xmlns="http://www.w3.org/2000/svg" fill="none" aria-hidden="true" viewBox="0 0 48 48"><g id="google-keep-Icon"><g id="Group"><path id="Vector" fill="#F4B400" d="M31.5789 41.9806H8.84211C7.27436 41.976 6.00459 40.7069 6 39.14V8.84057C6.00459 7.27367 7.27436 6.00458 8.84211 6H39.1579C40.7256 6.00458 41.9954 7.27367 42 8.84057V31.5652L35.8421 35.826L31.5789 41.9806Z"/><path id="Vector_2" fill="url(#paint0_linear_94_19233)" d="M17.9747 14.1688C14.6431 17.4934 14.6387 22.8878 17.965 26.2176L17.97 26.2225L19.7368 27.9932V34.4058L27.3157 41.9806H31.5789L42 31.5652V26.142L30.03 14.1785C26.7037 10.8487 21.3063 10.8443 17.9747 14.1688V14.1688Z"/><path id="Vector_3" fill="#3E2723" d="M31.5791 41.9806V34.4058C31.5787 32.8374 32.8504 31.5656 34.4196 31.5652H42.0002L31.5791 41.9806Z" opacity="0.2"/><path id="Vector_4" fill="#FADA80" d="M31.5791 41.9806V34.4058C31.5787 32.8374 32.8504 31.5656 34.4196 31.5652H42.0002L31.5791 41.9806Z"/><path id="Vector_5" fill="white" fill-opacity="0.2" d="M34.4196 31.5652C32.8504 31.5656 31.5787 32.8374 31.5791 34.4058V34.6409C31.5795 33.0725 32.852 31.8015 34.4212 31.8019H41.7633L42.0002 31.5652H34.4212L34.4196 31.5652Z"/><path id="Vector_6" fill="#3E2723" d="M23.9999 11.6812C19.2916 11.6806 15.4742 15.495 15.4736 20.2008C15.4733 23.2455 17.0984 26.0591 19.7368 27.5813V34.4058H21.6315V36.2995H26.8421V34.4058H28.7368V27.2877C32.652 24.6733 33.7054 19.3817 31.0896 15.4686C29.5076 13.1019 26.8477 11.681 23.9999 11.6812V11.6812ZM26.842 32.512H21.6315V30.6183H26.842V32.512ZM26.842 26.1894V28.7246H21.6315V26.393C18.2094 25.0864 16.495 21.2546 17.8023 17.8343C19.1096 14.414 22.9435 12.7006 26.3656 14.0071C29.7877 15.3137 31.5021 19.1455 30.1948 22.5658C29.5855 24.1599 28.3846 25.4578 26.842 26.1894V26.1894Z" opacity="0.1"/><path id="Vector_7" fill="#F1F1F1" d="M23.9999 11.6812C19.2916 11.6806 15.4742 15.495 15.4736 20.2008C15.4733 23.2455 17.0984 26.0591 19.7368 27.5813V34.4058H21.6315V36.2995H26.8421V34.4058H28.7368V27.2877C32.652 24.6733 33.7054 19.3817 31.0896 15.4686C29.5076 13.1019 26.8477 11.681 23.9999 11.6812V11.6812ZM26.842 32.512H21.6315V30.6183H26.842V32.512ZM26.842 26.1894V28.7246H21.6315V26.393C18.2094 25.0864 16.495 21.2546 17.8023 17.8343C19.1096 14.414 22.9435 12.7006 26.3656 14.0071C29.7877 15.3137 31.5021 19.1455 30.1948 22.5658C29.5855 24.1599 28.3846 25.4578 26.842 26.1894V26.1894Z"/><path id="Vector_8" fill="white" fill-opacity="0.4" d="M21.6315 32.7488H26.842V32.512H21.6315V32.7488ZM21.6315 28.9613H26.842V28.7246H21.6315V28.9613ZM21.6315 26.393C19.0993 25.4217 17.4131 23.0082 17.3731 20.2976C17.3731 20.3449 17.3684 20.3923 17.3684 20.442C17.3722 23.1878 19.0666 25.6481 21.6315 26.6321V26.393H21.6315ZM26.842 26.1894V26.4261C29.1543 25.3276 30.6287 22.9984 30.6315 20.4396C30.6315 20.3923 30.6292 20.3473 30.6268 20.2999C30.5894 22.823 29.1222 25.1061 26.842 26.1894V26.1894ZM23.9999 11.6812C19.2911 11.6815 15.474 15.4966 15.4736 20.2029C15.4736 20.236 15.476 20.2692 15.476 20.3047C15.5498 15.5996 19.426 11.8451 24.1336 11.9189C28.7381 11.9911 32.453 15.705 32.5239 20.307C32.5239 20.2715 32.5263 20.2384 32.5263 20.2029C32.5259 15.4966 28.7087 11.6815 23.9999 11.6812Z"/><path id="Vector_9" fill="#BF360C" fill-opacity="0.1" d="M19.7368 27.5813C17.131 26.0774 15.5117 23.3118 15.476 20.3047C15.476 20.3497 15.4736 20.3946 15.4736 20.4396C15.4725 23.484 17.098 26.2973 19.7368 27.818V27.5813ZM21.6315 30.8551H26.8421V30.6183H21.6315V30.8551ZM24 13.8116C27.6058 13.8156 30.5486 16.6968 30.6268 20.3C30.6268 20.2668 30.6315 20.236 30.6315 20.2029C30.6315 16.5424 27.6625 13.5749 24 13.5749C20.3374 13.5749 17.3684 16.5424 17.3684 20.2029C17.3684 20.2337 17.3707 20.2644 17.3731 20.2952C17.4533 16.6938 20.3957 13.815 24 13.8116ZM26.8421 34.6425H28.7368V34.4058H26.8421V34.6425ZM32.5239 20.3071C32.4924 23.1162 31.0751 25.7287 28.7368 27.2878V27.5245C31.1059 25.9449 32.5281 23.286 32.5263 20.4396C32.5263 20.3946 32.5239 20.352 32.5239 20.3071ZM21.6315 34.4058H19.7368V34.6425H21.6315V34.4058ZM21.6315 36.5362H26.8421V36.2995H21.6315V36.5362Z"/><path id="Vector_10" fill="white" fill-opacity="0.2" d="M39.1579 6H8.84211C7.27436 6.00458 6.00459 7.27367 6 8.84057V9.07729C6.00459 7.51039 7.27436 6.2413 8.84211 6.23672H39.1579C40.7256 6.2413 41.9954 7.51039 42 9.07729V8.84057C41.9954 7.27367 40.7256 6.00458 39.1579 6Z"/><path id="Vector_11" fill="#BF360C" fill-opacity="0.1" d="M8.84211 41.7439C7.27436 41.7393 6.00459 40.4702 6 38.9033V39.1401C6.00459 40.707 7.27436 41.976 8.84211 41.9806H31.5789L42 31.5652H41.7632L31.5789 41.7439H8.84211Z"/><path id="Vector_12" fill="url(#paint1_radial_94_19233)" d="M31.5789 41.9806H8.84211C7.27436 41.976 6.00459 40.7069 6 39.14V8.84057C6.00459 7.27367 7.27436 6.00458 8.84211 6H39.1579C40.7256 6.00458 41.9954 7.27367 42 8.84057V31.5652L31.5789 41.9806Z"/></g></g><defs><linearGradient id="paint0_linear_94_19233" x1="17.5053" x2="36.9664" y1="16.9175" y2="36.3894" gradientUnits="userSpaceOnUse"><stop stop-color="#BF360C" stop-opacity="0.1"/><stop offset="1" stop-color="#BF360C" stop-opacity="0.02"/></linearGradient><radialGradient id="paint1_radial_94_19233" cx="0" cy="0" r="1" gradientTransform="matrix(41.9444 0 0 41.9211 7.086 7.158)" gradientUnits="userSpaceOnUse"><stop stop-color="white" stop-opacity="0.1"/><stop offset="1" stop-color="white" stop-opacity="0"/></radialGradient></defs></svg>

<svg xmlns="http://www.w3.org/2000/svg" fill="none" aria-hidden="true" viewBox="0 0 48 48"><path fill="#F4B400" d="M31.579 41.98H8.842A2.85 2.85 0 0 1 6 39.14V8.84A2.85 2.85 0 0 1 8.842 6h30.316A2.85 2.85 0 0 1 42 8.84v22.725l-6.158 4.261-4.263 6.155Z"/><path fill="url(#a)" d="M17.975 14.169a8.517 8.517 0 0 0-.01 12.049l.005.005 1.767 1.77v6.413l7.579 7.575h4.263L42 31.565v-5.423L30.03 14.179a8.528 8.528 0 0 0-12.055-.01Z"/><path fill="#3E2723" d="M31.58 41.98v-7.574a2.84 2.84 0 0 1 2.84-2.84H42L31.58 41.98Z" opacity=".2"/><path fill="#FADA80" d="M31.58 41.98v-7.574a2.84 2.84 0 0 1 2.84-2.84H42L31.58 41.98Z"/><path fill="#fff" fill-opacity=".2" d="M34.42 31.565a2.84 2.84 0 0 0-2.84 2.84v.236a2.84 2.84 0 0 1 2.841-2.84h7.342l.237-.236h-7.58Z"/><path fill="#3E2723" d="M24 11.681a8.52 8.52 0 0 0-4.263 15.9v6.825h1.895V36.3h5.21v-1.894h1.895v-7.118a8.518 8.518 0 0 0 2.353-11.82A8.527 8.527 0 0 0 24 11.682Zm2.842 20.831h-5.21v-1.894h5.21v1.894Zm0-6.323v2.536h-5.21v-2.332a6.628 6.628 0 0 1-3.83-8.559 6.634 6.634 0 0 1 8.564-3.827 6.628 6.628 0 0 1 .476 12.182Z" opacity=".1"/><path fill="#F1F1F1" d="M24 11.681a8.52 8.52 0 0 0-4.263 15.9v6.825h1.895V36.3h5.21v-1.894h1.895v-7.118a8.518 8.518 0 0 0 2.353-11.82A8.527 8.527 0 0 0 24 11.682Zm2.842 20.831h-5.21v-1.894h5.21v1.894Zm0-6.323v2.536h-5.21v-2.332a6.628 6.628 0 0 1-3.83-8.559 6.634 6.634 0 0 1 8.564-3.827 6.628 6.628 0 0 1 .476 12.182Z"/><path fill="#fff" fill-opacity=".4" d="M21.632 32.749h5.21v-.237h-5.21v.237Zm0-3.788h5.21v-.236h-5.21v.236Zm0-2.568a6.634 6.634 0 0 1-4.259-6.095c0 .047-.005.094-.005.144a6.64 6.64 0 0 0 4.264 6.19v-.239Zm5.21-.204v.237a6.636 6.636 0 0 0 3.79-5.986c0-.048-.003-.093-.005-.14a6.63 6.63 0 0 1-3.785 5.89ZM24 11.681c-4.709 0-8.526 3.816-8.526 8.522l.002.102c.074-4.705 3.95-8.46 8.658-8.386a8.523 8.523 0 0 1 8.39 8.388l.002-.104c0-4.706-3.817-8.521-8.526-8.522Z"/><path fill="#BF360C" fill-opacity=".1" d="M19.737 27.581a8.518 8.518 0 0 1-4.26-7.276l-.003.135a8.512 8.512 0 0 0 4.263 7.378v-.237Zm1.895 3.274h5.21v-.237h-5.21v.237ZM24 13.812a6.634 6.634 0 0 1 6.627 6.488c0-.033.005-.064.005-.097A6.63 6.63 0 0 0 24 13.575a6.63 6.63 0 0 0-6.632 6.628c0 .03.003.061.005.092A6.633 6.633 0 0 1 24 13.812Zm2.842 20.83h1.895v-.236h-1.895v.236Zm5.682-14.335a8.505 8.505 0 0 1-3.787 6.98v.238a8.51 8.51 0 0 0 3.79-7.085c0-.045-.003-.088-.003-.133ZM21.632 34.406h-1.895v.236h1.895v-.236Zm0 2.13h5.21V36.3h-5.21v.236Z"/><path fill="#fff" fill-opacity=".2" d="M39.158 6H8.842A2.85 2.85 0 0 0 6 8.84v.237a2.85 2.85 0 0 1 2.842-2.84h30.316A2.85 2.85 0 0 1 42 9.077v-.236A2.85 2.85 0 0 0 39.158 6Z"/><path fill="#BF360C" fill-opacity=".1" d="M8.842 41.744A2.85 2.85 0 0 1 6 38.904v.236a2.85 2.85 0 0 0 2.842 2.84H31.58L42 31.566h-.237L31.58 41.744H8.842Z"/><path fill="url(#b)" d="M31.579 41.98H8.842A2.85 2.85 0 0 1 6 39.14V8.84A2.85 2.85 0 0 1 8.842 6h30.316A2.85 2.85 0 0 1 42 8.84v22.725L31.579 41.981Z"/><defs><radialGradient id="b" cx="0" cy="0" r="1" gradientTransform="matrix(41.9444 0 0 41.9211 7.086 7.158)" gradientUnits="userSpaceOnUse"><stop stop-color="#fff" stop-opacity=".1"/><stop offset="1" stop-color="#fff" stop-opacity="0"/></radialGradient><linearGradient id="a" x1="17.505" x2="36.966" y1="16.918" y2="36.389" gradientUnits="userSpaceOnUse"><stop stop-color="#BF360C" stop-opacity=".1"/><stop offset="1" stop-color="#BF360C" stop-opacity=".02"/></linearGradient></defs></svg>
